X:461
T:Leslie
R:Reel
B:The Athole Collection
M:C|
L:1/8
K:D
A|d2 fdec Ac|BcdB AFDF|G2 BGAF DF|GECE D2D:|
g|f2 dfec Ac|BcdB AFDg|f2 dfec Ac|Bgec d2 dg|f2 dgec Ac|BcdB AFDF|
GBGB FAFA|GECE D2D||

